app/dist/common/images/audinate.svg

<svg height="18" viewBox="0 0 18 18" width="18" xmlns="http://www.w3.org/2000/svg"><path d="m0 0h18v18h-18z" fill="#f0f3fa"/><circle cx="9" cy="9" fill="#c5072b" r="5"/><g fill="#fffeff"><path d="m6.59 11a4.41 4.41 0 0 1 4.41-4.41v-.59a5 5 0 0 0 -5 5z"/><path d="m7 11h3.08v-.67h-2.4a3.18 3.18 0 0 1 2.7-2.65v3.32h.62v-4c-2.2 0-4 1.68-4 4zm-1 .5h.59v.5h-.59zm1 0h4v.5h-4z"/></g></svg>

<!-- by TradingView --><svg width="18" height="18" viewBox="0 0 18 18" xmlns="http://www.w3.org/2000/svg"><path fill="#F0F3FA" d="M0 0h18v18H0z"/><circle cx="9" cy="9" r="5" fill="#C5072B"/><path d="M6.59 11A4.41 4.41 0 0 1 11 6.59V6a5 5 0 0 0-5 5h.59Z" fill="#FFFEFF"/><path d="M7 11h3.08v-.67h-2.4a3.18 3.18 0 0 1 2.7-2.65V11H11V7c-2.2 0-4 1.68-4 4ZM6 11.5h.59v.5H6v-.5ZM7 11.5h4v.5H7v-.5Z" fill="#FFFEFF"/></svg>
